**harm	**harte	**timestamp	**phrase	**leadinstrument	**kern
*M4/4	*M4/4	*	*	*	*
*A:	*A:	*	*	*	*A:
1r;	N	0	.	r	1r;
=1	=1	=1	=1	=1	=1
*>A_intro	*>A_intro	*>A_intro	*>A_intro	*>A_intro	*>A_intro
1r	N	0.511	newline	r	1r
=2	=2	=2	=2	=2	=2
1r	N	2.983	.	r	1r
=3	=3	=3	=3	=3	=3
1r	N	5.455	.	r	1r
=4	=4	=4	=4	=4	=4
1r	N	7.928	.	r	1r
=5	=5	=5	=5	=5	=5
1r	N	10.4	newline	r	1r
=6	=6	=6	=6	=6	=6
1r	N	12.137	.	r	1r
=7	=7	=7	=7	=7	=7
1r	N	13.875	.	r	1r
=8	=8	=8	=8	=8	=8
1r	N	15.612	.	r	1r
=9	=9	=9	=9	=9	=9
1r	N	17.349	.	r	1r
=10	=10	=10	=10	=10	=10
*>B_instrumental	*>B_instrumental	*>B_instrumental	*>B_instrumental	*>B_instrumental	*>B_instrumental
1I	A:maj	19.087	newline	r	1A 1cc# 1ee
=11	=11	=11	=11	=11	=11
1I	A:maj	21.261	.	r	1A 1cc# 1ee
=12	=12	=12	=12	=12	=12
1-VII	G:maj	23.435	.	r	1G 1b 1dd
=13	=13	=13	=13	=13	=13
1-VII	G:maj	25.609	.	r	1G 1b 1dd
=14	=14	=14	=14	=14	=14
1IVc	D:maj/5	27.784	newline	r	1d 1f# 1A
=15	=15	=15	=15	=15	=15
1IVc	D:maj/5	29.932	.	r	1d 1f# 1A
=16	=16	=16	=16	=16	=16
1I	A:maj	32.08	.	r	1A 1cc# 1ee
=17	=17	=17	=17	=17	=17
1I	A:maj	34.229	.	r	1A 1cc# 1ee
=18	=18	=18	=18	=18	=18
1I	A:maj	36.377	newline	r	1A 1cc# 1ee
=19	=19	=19	=19	=19	=19
1I	A:maj	38.511	.	r	1A 1cc# 1ee
=20	=20	=20	=20	=20	=20
1-VII	G:maj	40.644	.	r	1G 1b 1dd
=21	=21	=21	=21	=21	=21
1-VII	G:maj	42.778	.	r	1G 1b 1dd
=22	=22	=22	=22	=22	=22
1IV	D:maj	44.911	newline	r	1D 1f# 1a
=23	=23	=23	=23	=23	=23
1IV	D:maj	47.054	.	r	1D 1f# 1a
=24	=24	=24	=24	=24	=24
1I	A:maj	49.198	.	r	1A 1cc# 1ee
=25	=25	=25	=25	=25	=25
1I	A:maj	51.341	.	r	1A 1cc# 1ee
=26	=26	=26	=26	=26	=26
*>B_verse	*>B_verse	*>B_verse	*>B_verse	*>B_verse	*>B_verse
1I	A:maj	53.484	newline	voice	1A 1cc# 1ee
=27	=27	=27	=27	=27	=27
1I	A:maj	55.638	.	voice	1A 1cc# 1ee
=28	=28	=28	=28	=28	=28
1-VII	G:maj	57.792	.	voice	1G 1b 1dd
=29	=29	=29	=29	=29	=29
1-VII	G:maj	59.946	.	voice	1G 1b 1dd
=30	=30	=30	=30	=30	=30
1IVc	D:maj/5	62.1	newline	voice	1d 1f# 1A
=31	=31	=31	=31	=31	=31
1IVc	D:maj/5	64.238	.	voice	1d 1f# 1A
=32	=32	=32	=32	=32	=32
1I	A:maj	66.376	.	voice	1A 1cc# 1ee
=33	=33	=33	=33	=33	=33
1I	A:maj	68.513	.	voice	1A 1cc# 1ee
=34	=34	=34	=34	=34	=34
1I	A:maj	70.651	newline	voice	1A 1cc# 1ee
=35	=35	=35	=35	=35	=35
1I	A:maj	72.795	.	voice	1A 1cc# 1ee
=36	=36	=36	=36	=36	=36
1-VII	G:maj	74.938	.	voice	1G 1b 1dd
=37	=37	=37	=37	=37	=37
1-VII	G:maj	77.082	.	voice	1G 1b 1dd
=38	=38	=38	=38	=38	=38
1IV	D:maj	79.226	newline	voice	1D 1f# 1a
=39	=39	=39	=39	=39	=39
1IV	D:maj	81.376	.	voice	1D 1f# 1a
=40	=40	=40	=40	=40	=40
1I	A:maj	83.526	.	voice	1A 1cc# 1ee
=41	=41	=41	=41	=41	=41
1I	A:maj	85.676	.	voice	1A 1cc# 1ee
=42	=42	=42	=42	=42	=42
*>C_chorus	*>C_chorus	*>C_chorus	*>C_chorus	*>C_chorus	*>C_chorus
1vi7	F#:min11	87.826	newline	voice	1F# 1a 1cc# 1ee
=43	=43	=43	=43	=43	=43
1IV	D:maj	89.973	.	voice	1D 1f# 1a
=44	=44	=44	=44	=44	=44
1I	A:maj	92.119	.	voice	1A 1cc# 1ee
=45	=45	=45	=45	=45	=45
1I	A:maj	94.265	.	voice	1A 1cc# 1ee
=46	=46	=46	=46	=46	=46
1vi7	F#:min11	96.412	newline	voice	1F# 1a 1cc# 1ee
=47	=47	=47	=47	=47	=47
1IV	D:maj	98.544	.	voice	1D 1f# 1a
=48	=48	=48	=48	=48	=48
1IV	D:maj	100.676	.	voice	1D 1f# 1a
=49	=49	=49	=49	=49	=49
2IV	D:maj	102.809	.	voice	2D 2f# 2a
2IV	D:sus4(b7)	103.875	.	voice	2D 2f# 2a
=50	=50	=50	=50	=50	=50
*>B_verse	*>B_verse	*>B_verse	*>B_verse	*>B_verse	*>B_verse
1I	A:maj	104.941	newline	voice	1A 1cc# 1ee
=51	=51	=51	=51	=51	=51
1I	A:maj	107.11	.	voice	1A 1cc# 1ee
=52	=52	=52	=52	=52	=52
1-VII	G:maj	109.278	.	voice	1G 1b 1dd
=53	=53	=53	=53	=53	=53
1-VII	G:maj	111.447	.	voice	1G 1b 1dd
=54	=54	=54	=54	=54	=54
1IVc	D:maj/5	113.615	newline	voice	1d 1f# 1A
=55	=55	=55	=55	=55	=55
1IVc	D:maj/5	115.769	.	voice	1d 1f# 1A
=56	=56	=56	=56	=56	=56
1I	A:maj	117.923	.	voice	1A 1cc# 1ee
=57	=57	=57	=57	=57	=57
1I	A:maj	120.077	.	voice	1A 1cc# 1ee
=58	=58	=58	=58	=58	=58
1I	A:maj	122.231	newline	voice	1A 1cc# 1ee
=59	=59	=59	=59	=59	=59
1I	A:maj	124.376	.	voice	1A 1cc# 1ee
=60	=60	=60	=60	=60	=60
1-VII	G:maj	126.521	.	voice	1G 1b 1dd
=61	=61	=61	=61	=61	=61
1-VII	G:maj	128.666	.	voice	1G 1b 1dd
=62	=62	=62	=62	=62	=62
1IVc	D:maj/5	130.811	newline	voice	1d 1f# 1A
=63	=63	=63	=63	=63	=63
1IVc	D:maj/5	132.95	.	voice	1d 1f# 1A
=64	=64	=64	=64	=64	=64
1I	A:maj	135.088	.	voice	1A 1cc# 1ee
=65	=65	=65	=65	=65	=65
1I	A:maj	137.227	.	voice	1A 1cc# 1ee
=66	=66	=66	=66	=66	=66
*>C_chorus	*>C_chorus	*>C_chorus	*>C_chorus	*>C_chorus	*>C_chorus
1vi7	F#:min11	139.365	newline	voice	1F# 1a 1cc# 1ee
=67	=67	=67	=67	=67	=67
1IV	D:maj	141.53	.	voice	1D 1f# 1a
=68	=68	=68	=68	=68	=68
1I	A:maj	143.694	.	voice	1A 1cc# 1ee
=69	=69	=69	=69	=69	=69
1I	A:maj	145.859	.	voice	1A 1cc# 1ee
=70	=70	=70	=70	=70	=70
1vi7	F#:min11	148.024	newline	voice	1F# 1a 1cc# 1ee
=71	=71	=71	=71	=71	=71
1IV	D:maj	150.166	.	voice	1D 1f# 1a
=72	=72	=72	=72	=72	=72
1IV	D:maj	152.309	.	voice	1D 1f# 1a
=73	=73	=73	=73	=73	=73
2IV	D:maj	154.452	.	voice	2D 2f# 2a
2IV	D:sus4(b7)	155.523	.	voice	2D 2f# 2a
=74	=74	=74	=74	=74	=74
*>B_interlude	*>B_interlude	*>B_interlude	*>B_interlude	*>B_interlude	*>B_interlude
1I	A:maj	156.594	newline	voice	1A 1cc# 1ee
=75	=75	=75	=75	=75	=75
1I	A:maj	158.747	.	voice	1A 1cc# 1ee
=76	=76	=76	=76	=76	=76
1-VII	G:maj	160.9	.	voice	1G 1b 1dd
=77	=77	=77	=77	=77	=77
1-VII	G:maj	163.052	.	voice	1G 1b 1dd
=78	=78	=78	=78	=78	=78
1IVc	D:maj/5	165.205	newline	voice	1d 1f# 1A
=79	=79	=79	=79	=79	=79
1IVc	D:maj/5	167.359	.	voice	1d 1f# 1A
=80	=80	=80	=80	=80	=80
1I	A:maj	169.513	.	voice	1A 1cc# 1ee
=81	=81	=81	=81	=81	=81
1I	A:maj	171.667	.	voice	1A 1cc# 1ee
=82	=82	=82	=82	=82	=82
1r	N	173.82	newline	voice	1r
=83	=83	=83	=83	=83	=83
1r	N	175.94	.	voice	1r
=84	=84	=84	=84	=84	=84
*>B_solo	*>B_solo	*>B_solo	*>B_solo	*>B_solo	*>B_solo
1I	A:maj	178.06	newline	guitar	1A 1cc# 1ee
=85	=85	=85	=85	=85	=85
1I	A:maj	180.257	.	guitar	1A 1cc# 1ee
=86	=86	=86	=86	=86	=86
1-VII	G:maj	182.455	.	guitar	1G 1b 1dd
=87	=87	=87	=87	=87	=87
1-VII	G:maj	184.652	.	guitar	1G 1b 1dd
=88	=88	=88	=88	=88	=88
1IVc	D:maj/5	186.849	newline	guitar	1d 1f# 1A
=89	=89	=89	=89	=89	=89
1IVc	D:maj/5	188.987	.	guitar	1d 1f# 1A
=90	=90	=90	=90	=90	=90
1I	A:maj	191.124	.	guitar	1A 1cc# 1ee
=91	=91	=91	=91	=91	=91
1I	A:maj	193.262	.	guitar	1A 1cc# 1ee
=92	=92	=92	=92	=92	=92
*>B_verse	*>B_verse	*>B_verse	*>B_verse	*>B_verse	*>B_verse
1I	A:maj	195.4	newline	voice	1A 1cc# 1ee
=93	=93	=93	=93	=93	=93
1I	A:maj	197.559	.	voice	1A 1cc# 1ee
=94	=94	=94	=94	=94	=94
1-VII	G:maj	199.717	.	voice	1G 1b 1dd
=95	=95	=95	=95	=95	=95
1-VII	G:maj	201.876	.	voice	1G 1b 1dd
=96	=96	=96	=96	=96	=96
1IVc	D:maj/5	204.035	newline	voice	1d 1f# 1A
=97	=97	=97	=97	=97	=97
1IVc	D:maj/5	206.187	.	voice	1d 1f# 1A
=98	=98	=98	=98	=98	=98
1I	A:maj	208.34	.	voice	1A 1cc# 1ee
=99	=99	=99	=99	=99	=99
1I	A:maj	210.493	.	voice	1A 1cc# 1ee
=100	=100	=100	=100	=100	=100
*>C_chorus	*>C_chorus	*>C_chorus	*>C_chorus	*>C_chorus	*>C_chorus
1vi7	F#:min11	212.645	newline	voice	1F# 1a 1cc# 1ee
=101	=101	=101	=101	=101	=101
1IV	D:maj	214.799	.	voice	1D 1f# 1a
=102	=102	=102	=102	=102	=102
1I	A:maj	216.952	.	voice	1A 1cc# 1ee
=103	=103	=103	=103	=103	=103
1I	A:maj	219.106	.	voice	1A 1cc# 1ee
=104	=104	=104	=104	=104	=104
1vi7	F#:min11	221.26	newline	voice	1F# 1a 1cc# 1ee
=105	=105	=105	=105	=105	=105
1IV	D:maj	223.374	.	voice	1D 1f# 1a
=106	=106	=106	=106	=106	=106
1IV	D:maj	225.488	.	voice	1D 1f# 1a
=107	=107	=107	=107	=107	=107
2IV	D:maj	227.603	.	voice	2D 2f# 2a
2IV	D:sus4(b7)	228.66	.	voice	2D 2f# 2a
=108	=108	=108	=108	=108	=108
*>B_interlude	*>B_interlude	*>B_interlude	*>B_interlude	*>B_interlude	*>B_interlude
1I	A:maj	229.717	newline	voice	1A 1cc# 1ee
=109	=109	=109	=109	=109	=109
1I	A:maj	231.87	.	voice	1A 1cc# 1ee
=110	=110	=110	=110	=110	=110
1-VII	G:maj	234.023	.	voice	1G 1b 1dd
=111	=111	=111	=111	=111	=111
1-VII	G:maj	236.177	.	voice	1G 1b 1dd
=112	=112	=112	=112	=112	=112
1IVc	D:maj/5	238.33	newline	voice	1d 1f# 1A
=113	=113	=113	=113	=113	=113
1IVc	D:maj/5	240.483	.	voice	1d 1f# 1A
=114	=114	=114	=114	=114	=114
1I	A:maj	242.635	.	voice	1A 1cc# 1ee
=115	=115	=115	=115	=115	=115
1I	A:maj	244.788	.	voice	1A 1cc# 1ee
=116	=116	=116	=116	=116	=116
*>_fadeout	*>_fadeout	*>_fadeout	*>_fadeout	*>_fadeout	*>_fadeout
1I	A:maj	246.941	newline	voice	1A 1cc# 1ee
=117	=117	=117	=117	=117	=117
1I	A:maj	249.072	.	voice	1A 1cc# 1ee
=118	=118	=118	=118	=118	=118
1-VII	G:maj	251.203	.	voice	1G 1b 1dd
=119	=119	=119	=119	=119	=119
1-VII	G:maj	253.334	.	voice	1G 1b 1dd
=120	=120	=120	=120	=120	=120
1IVc	D:maj/5	255.464	newline	voice	1d 1f# 1A
=121	=121	=121	=121	=121	=121
1IVc	D:maj/5	256.962	.	voice	1d 1f# 1A
=122	=122	=122	=122	=122	=122
1I	A:maj	258.461	.	voice	1A 1cc# 1ee
=123	=123	=123	=123	=123	=123
1I	A:maj	259.959	.	voice	1A 1cc# 1ee
1r;	N	261.457	.	r	1r;
1r;	N	264.934	.	r	1r;
*-	*-	*-	*-	*-	*-
!!!OTL: Addicted To Love
!!!COC: Robert Palmer
!!!BillboardChartDate: 1986/03/08, 1986/03/08
!!!BillboardPeak: 1, 1
!!!BillboardWeeksOnChart: 22, 22
!!!SampleTargetRank: 40, 37
!!!SampleActualRank: 38, 38
!!!SampleID#: 271, 458
!!!RDF**harmony: **recip + pitch class of root + harmonic quality
!!!RDF**harte: Chris Harte's syntax, used by MIREX
!!!RDF**phrase: newline = linebreak in original McGill transcription
!!!RDF**timestamp: McGill audio timestamp in seconds
!!!RDF**leadinstrument: original McGill primary instrumentation annotation
!!!RDT: 2017/01/12/
!!!ENC: Nathaniel Condit-Schultz
!!!EST: Awating manual error checking and editing.
